server/website/public/icons/base/lifecoaching.svg

<svg width="48" height="48" viewBox="0 0 48 48" fill="none" xmlns="http://www.w3.org/2000/svg">
<path d="M5 6.63319C5 6.63319 7.53891 15.0415 20.6391 20.7823C20.6391 20.7823 30.9198 27.567 20.7845 45.6115M43.9997 2.00282C43.9997 2.00282 44.2032 6.90283 34.7849 17.0087C34.7849 17.0087 48.7096 25.8897 31.8155 46M27.965 5.56475C30.3629 8.91358 30.1796 13.1424 27.5579 15.0096C24.9332 16.8768 20.8631 15.675 18.4638 12.3247C16.0644 8.97447 16.2491 4.74712 18.8709 2.8799C21.4956 1.01267 25.5657 2.21448 27.965 5.56475Z" stroke="black" stroke-width="3.3" stroke-linecap="round" stroke-linejoin="round"/>
</svg>

<svg width="48" height="48" fill="none" xmlns="http://www.w3.org/2000/svg"><path d="M5 6.633s2.539 8.409 15.64 14.15c0 0 10.28 6.784.145 24.828M44 2.004s.203 4.9-9.215 15.006c0 0 13.925 8.88-2.97 28.991m-3.85-40.435c2.398 3.349 2.215 7.577-.407 9.445-2.625 1.867-6.695.665-9.094-2.685-2.4-3.35-2.215-7.578.407-9.445 2.625-1.867 6.695-.666 9.094 2.685z" stroke="#000" stroke-width="3.3" stroke-linecap="round" stroke-linejoin="round"/></svg>
